X:175
T:Scots Fanny. RH.175
R:Air
S:Rev.R.Harrison’s MS,c1815,Cumbria
N:Remarkably similar to the preceding tune.CGP
O:England
A:Temple Sowerby,Cumbria
Z:vmp.Simon Wilson. Review PJH, 2008.
M:3/4
L:1/8
Q:1/4=90
K:G
G>A|{A}B2d2(d/e/f)|g3e (d/e/g)|\
(ed)(cB)(AG)|F4(g>a)|!
{g}f3ed2|{d}e2g2D2|{D}F2G2GA|G4:|!
|:(Bc)|d2(e/f/g) (e>d)|d3BAB|G4A>B|{B}d4({de}f2)|!
g4f2|e3gGA|{A}B2e2(ef)|e4(d/e/f)|!
g3a (f/g/a)|G3A (B/c/d)|D4D/E/=F|E4(G>A)|!
B3ged|B2d2D2|{D}E2G2(GA)|G4:|!
M:6/8
Q:3/8=120
|:g|f>ed ” Brisk”(ef)e|d>cB cde|A3 a2g|!
fef (gd)B|(cd)e Adc|B3 G2:|!
|:(B/c/)|dBG c2d|efg (ae)g|f3 d2c|!
(B/c/d)G FAB|cAG FDF|G3- G2:|

